src/16/actions/window-previous.svg

<svg xmlns="http://www.w3.org/2000/svg" viewBox="0 0 16 16">
  <defs id="defs3051">
    <style type="text/css" id="current-color-scheme">
      .ColorScheme-Text {
        color:#5d656b;
      }
      </style>
  </defs>
 <path style="fill:currentColor;fill-opacity:1;stroke:none" 
       d="M 2 2 L 2 5 L 2 14 L 3 14 L 14 14 L 14 13 L 14 2 L 3 2 L 2 2 z M 3 5 L 13 5 L 13 13 L 3 13 L 3 5 z M 9.1992188 6 L 8.125 7.0078125 L 6 9 L 8.125 10.992188 L 9.1992188 12 L 10 11.25 L 8.9257812 10.242188 L 7.5996094 9 L 8.9257812 7.7578125 L 10 6.75 L 9.1992188 6 z "
     class="ColorScheme-Text"
     />
</svg>

<svg xmlns="http://www.w3.org/2000/svg" viewBox="0 0 16 16"><path d="M2 2v12h12V2H2zm1 3h10v8H3V5zm6.2 1L8.124 7.008 6 9l2.125 1.992L9.199 12l.801-.75-1.074-1.008L7.6 9l1.326-1.242L10 6.75 9.2 6z" fill="currentColor" color="#5d656b"/></svg>
